X:1
T:Lesson 3 - Key Signatures - Exercise 1
M:C
K:A
L:1/4
vA2 B2|c2 d2|d2 c2|B2 A2|A A B B|c c d d|d d c c|B B A A|]
